src/actions/24/frmt-text-direction-r2l.svg

<svg width="24" height="24" version="1.1">
  <defs>
    <style id="current-color-scheme" type="text/css">
      .ColorScheme-Text { color:#2e3440; }
    </style>
  </defs>
  <path style="fill:currentColor" class="ColorScheme-Text" d="m 20,1 c 1.662,0 3,1.338 3,3 v 16 c 0,1.662 -1.338,3 -3,3 H 4 C 2.338,23 1,21.662 1,20 V 4 C 1,2.338 2.338,1 4,1 Z m 0,1 H 4 C 2.892,2 2,2.892 2,4 v 16 c 0,1.108 0.892,2 2,2 h 16 c 1.108,0 2,-0.892 2,-2 V 4 C 22,2.892 21.108,2 20,2 Z" />
  <path style="fill:currentColor" class="ColorScheme-Text" d="m 17,4 c 0.725,0 1.456691,0.212228 2.03125,0.671875 C 19.605809,5.131522 20,5.8611111 20,6.75 v 4 a -0.5,0.5 0 0 1 -0.5,0.5 -0.5,0.5 0 0 1 -0.5,-0.5 V 8.5 h -4 v 2.25 a -0.5,0.5 0 0 1 -0.5,0.5 -0.5,0.5 0 0 1 -0.5,-0.5 v -4 C 14,5.8611111 14.394191,5.131522 14.96875,4.671875 15.543309,4.212228 16.275,4 17,4 Z m 0,1 C 16.475,5 15.956691,5.162772 15.59375,5.453125 15.230809,5.743478 15,6.1388889 15,6.75 V 7.5 h 4 V 6.75 C 19,6.1388889 18.769191,5.743478 18.40625,5.453125 18.043309,5.162772 17.525,5 17,5 Z" />
  <path d="M 4,6.5 7,4 v 2 h 5 V 7 H 7 v 2 z" style="fill:currentColor" class="ColorScheme-Text"/>
  <path d="M 4,12.5 7,10 v 2 h 13 v 1 H 7 v 2 z" style="fill:currentColor" class="ColorScheme-Text"/>
  <path d="M 4,18.5 7,16 v 2 h 13 v 1 H 7 v 2 z" style="fill:currentColor" class="ColorScheme-Text"/>
</svg>

<?xml version="1.0" encoding="UTF-8"?>
<svg width="24" height="24" version="1.1" xmlns="http://www.w3.org/2000/svg">
 <defs>
  <style id="current-color-scheme" type="text/css">.ColorScheme-Text { color:#2e3440; }</style>
 </defs>
 <g fill="currentColor">
  <path class="ColorScheme-Text" d="m20 1c1.662 0 3 1.338 3 3v16c0 1.662-1.338 3-3 3h-16c-1.662 0-3-1.338-3-3v-16c0-1.662 1.338-3 3-3zm0 1h-16c-1.108 0-2 0.892-2 2v16c0 1.108 0.892 2 2 2h16c1.108 0 2-0.892 2-2v-16c0-1.108-0.892-2-2-2z"/>
  <path class="ColorScheme-Text" d="m4 6.5 3-2.5v2h5v1h-5v2z"/>
  <path class="ColorScheme-Text" d="m4 12.5 3-2.5v2h13v1h-13v2z"/>
  <path class="ColorScheme-Text" d="m4 18.5 3-2.5v2h13v1h-13v2z"/>
  <path class="ColorScheme-Text" d="m17 4c-0.725 0-1.4567 0.21223-2.0312 0.67188s-0.96875 1.1892-0.96875 2.0781v4a0.5 0.5 0 0 0 0.5 0.5 0.5 0.5 0 0 0 0.5-0.5v-2.25h4v2.25a0.5 0.5 0 0 0 0.5 0.5 0.5 0.5 0 0 0 0.5-0.5v-4c0-0.88889-0.39419-1.6185-0.96875-2.0781s-1.3062-0.67188-2.0312-0.67188zm0 1c0.525 0 1.0433 0.16277 1.4062 0.45312s0.59375 0.68576 0.59375 1.2969v0.75h-4v-0.75c0-0.61111 0.23081-1.0065 0.59375-1.2969s0.88125-0.45312 1.4062-0.45312z" color="#2e3440"/>
 </g>
</svg>
